X:101
T:Polka belongeth to Hope is still a fair Deceiver. Le4.101
M:2/4
L:1/8
N:All the semi-quaver triplets are marked as quaver triplets in the MS
Q:1/4=100
B:L.Leadley MS#4 c1850
Z:Village Music Project, 2016 Ruairidh Greig
K:Bb
F|"_No key sig in MS"Bdf "^NB"(3c'/d'/b/|ae2F|Ace (3g/a/g/|fd2F|
Bdf (3d'/e'/d'/|c' e2 (3c'/d'/c'/|b d2 (3b/c'/b/|ac2F|
Bdf (3b/c'/b/|ace f|Ace (3g/a/g/|fBd F|
Bdf  (3b/c'/b/|ace (3g/a/g/|fFA (3c/d/c/|BdB z|]

